icons/arrow-tray-down.svg

<svg xmlns="http://www.w3.org/2000/svg" width="24" height="24" viewBox="0 0 24 24">
  <path d="M21,14 C21.5522847,14 22,14.4477153 22,15 L22,15 L22,19 L21.9949073,19.1762728 C21.9036609,20.75108 20.5976809,22 19,22 L19,22 L5,22 L4.82372721,21.9949073 C3.24891996,21.9036609 2,20.5976809 2,19 L2,19 L2,15 L2.00672773,14.8833789 C2.06449284,14.3860402 2.48716416,14 3,14 C3.55228475,14 4,14.4477153 4,15 L4,15 L4,19 L4.00672773,19.1166211 C4.06449284,19.6139598 4.48716416,20 5,20 L5,20 L19,20 L19.1166211,19.9932723 C19.6139598,19.9355072 20,19.5128358 20,19 L20,19 L20,15 L20.0067277,14.8833789 C20.0644928,14.3860402 20.4871642,14 21,14 Z M11.373,15.779 L11.2928932,15.7071068 L11.2928932,15.7071068 L7.05025253,11.4644661 L6.96706393,11.3702588 C6.66203903,10.9779675 6.68976857,10.4107365 7.05025253,10.0502525 C7.41073649,9.68976857 7.97796755,9.66203903 8.37025876,9.96706393 L8.46446609,10.0502525 L10.9993593,12.585 L11,3 L11.0067277,2.88337887 C11.0644928,2.38604019 11.4871642,2 12,2 C12.5128358,2 12.9355072,2.38604019 12.9932723,2.88337887 L13,3 L12.9993593,12.585 L15.5355339,10.0502525 L15.6297412,9.96706393 C16.0220325,9.66203903 16.5892635,9.68976857 16.9497475,10.0502525 C17.3102314,10.4107365 17.337961,10.9779675 17.0329361,11.3702588 L16.9497475,11.4644661 L12.7071068,15.7071068 C12.6786695,15.735544 12.6485275,15.7622766 12.6168472,15.7871379 C12.606968,15.7949756 12.5967524,15.8026914 12.5864257,15.8101853 C12.5664533,15.8245831 12.5456983,15.8384932 12.5244138,15.8516276 C12.5087703,15.8613648 12.4935488,15.8701866 12.4781534,15.8785739 C12.4608561,15.8879406 12.4427011,15.8971507 12.4242378,15.9058129 C12.4051556,15.9147866 12.3858551,15.9230835 12.3663626,15.9307447 C12.3502364,15.9371193 12.3335527,15.9431898 12.3166686,15.9488223 C12.2975976,15.9551054 12.2788608,15.9607234 12.260005,15.9657809 C12.2419212,15.9707372 12.2228257,15.9752836 12.2035269,15.9792738 C12.1939931,15.9811494 12.1852208,15.9828348 12.1764315,15.9844021 L12.1482339,15.989089 L12.0748669,15.9972397 L12.0748669,15.9972397 L12.064,15.997 L12.0590314,15.9982669 L12.049,15.998 L12,16 L12,16 C11.9887775,16 11.9775981,15.9998151 11.9664648,15.9994483 L11.9409686,15.9982669 L11.9147758,15.996384 L11.9147758,15.996384 C11.8929426,15.994564 11.8718856,15.9920941 11.8510388,15.9889807 C11.8337848,15.9863322 11.8160941,15.9832041 11.7984817,15.979598 C11.7776365,15.9754159 11.7572852,15.9705665 11.7371855,15.965106 C11.7196452,15.9602745 11.7016611,15.954859 11.683811,15.9489267 C11.6664473,15.9431898 11.6497636,15.9371193 11.6332937,15.9306242 C11.6144279,15.9231947 11.5954049,15.9150274 11.576599,15.9062428 C11.5547964,15.8960049 11.5332887,15.8849663 11.5122503,15.8731893 L11.4962517,15.8641234 L11.4962517,15.8641234 L11.4804038,15.8546831 C11.4590495,15.841573 11.4381467,15.8277329 11.4178133,15.8131491 L11.3784075,15.7833908 L11.373,15.779 Z"/>
</svg>

<svg xmlns="http://www.w3.org/2000/svg" viewBox="0 0 24 24">
  <path d="M21 14a1 1 0 0 1 1 1v4.18A3 3 0 0 1 19 22H4.82A3 3 0 0 1 2 19v-4.12A1 1 0 0 1 4 15v4.12A1 1 0 0 0 5 20h14.12a1 1 0 0 0 .88-1v-4.12a1 1 0 0 1 1-.88zm-9.63 1.78-.08-.07-4.24-4.25-.08-.09a1 1 0 0 1 1.4-1.4l.1.08L11 12.59V2.88a1 1 0 0 1 2 0v9.72l2.54-2.54.09-.08a1 1 0 0 1 1.4 1.4l-.08.1-4.24 4.24a1 1 0 0 1-.53.27h-.03l-.08.02h-.16a.98.98 0 0 1-.4-.13h-.01l-.02-.02a1.05 1.05 0 0 1-.06-.04l-.04-.03z"/>
</svg>
